X: 5
T: The Monaghan
R: jig
M: 6/8
L: 1/8
K: Dmaj
BGE ~F2 E | BGE FGA | BGE ~F3 | AFD EFG |
BGE ~F3 | BGE FGA | d2 B ABG | ~F3 AFD :|
|: EGB efg | fdf ecA | DFA dAG | ~F3 AFD |
EGB e2 g | ~f3 edc | dcB ABG | ~F3 AFD :|
|: ~g3 eBe | ~g3 bge | g2 g eBe | ~f3 afd |
~g3 eBe | geg bge | d2 B ABG | ~F3 AFD :|


Tune 67	Setting 27543

